img/icons/logo.svg

<svg xmlns="http://www.w3.org/2000/svg" width="112" height="22" viewBox="0 0 112 22"><path fill="#FFF" d="M24 5.4c-.3-.4-.8-.5-1.3-.5h-2.1c-.5 0-.9.2-1.3.5l-1.4 1.4-.4-1.9h-2.2l.5 2.1v10.1h2.3V9.4c0-.2.1-.3.2-.4l2.2-2.1c.1-.1.3-.2.4-.2h1.6c.1 0 .3.1.4.2l.6.6c.1.1.2.2.2.4v1.8h2.2V7.8c0-.5-.2-.9-.6-1.3L24 5.4zm12.9 0c-.3-.4-.8-.5-1.3-.5h-5.2c-.5 0-.9.2-1.3.5l-1.2 1.1c-.4.4-.6.8-.6 1.3v6.3c0 .5.2.9.6 1.3l1.2 1.1c.4.4.8.5 1.3.5h5.3c.5 0 .9-.2 1.3-.5l1.2-1.1c.4-.4.6-.8.6-1.4V7.8c0-.5-.2-.9-.6-1.3l-1.3-1.1zm-.6 8.6c0 .2-.1.3-.2.4l-.5.5c-.1.1-.2.2-.4.2h-4.6c-.1 0-.3-.1-.4-.2l-.5-.5c-.1-.1-.2-.2-.2-.4V7.9c0-.2.1-.3.2-.4l.5-.5c.1-.1.2-.2.4-.2h4.6c.1 0 .3.1.4.2l.5.5c.1.1.2.2.2.4V14zm8.4-14h-2.3v4.9h-2v2h2v7.3c0 .5.2.9.6 1.3l1.1 1c.4.4.8.5 1.3.5h3.5v-2h-3.1c-.1 0-.3-.1-.4-.2l-.5-.5c-.1-.1-.2-.3-.2-.4v-7h4.2v-2h-4.2V0zm15.6 5.4c-.3-.3-.7-.5-1.3-.5h-5.2c-.5 0-.9.2-1.3.5l-1.2 1.1c-.4.4-.6.8-.6 1.3v6.3c0 .5.2.9.6 1.3l1.2 1.1c.4.4.8.5 1.3.5H59c.5 0 .9-.2 1.3-.5l1.2-1.1c.4-.4.6-.8.6-1.4V7.8c0-.5-.2-.9-.6-1.3l-1.2-1.1zm-.5 8.6c0 .2-.1.3-.2.4l-.5.5c-.1.1-.2.2-.4.2h-4.6c-.1 0-.3-.1-.4-.2l-.5-.5c-.1-.1-.2-.2-.2-.4V7.9c0-.2.1-.3.2-.4l.5-.5c.1-.1.2-.2.4-.2h4.6c.1 0 .3.1.4.2l.5.5c.1.1.2.2.2.4V14zm8.4-14h-2.3v4.9h-2v2h2v7.3c0 .5.2.9.6 1.3l1.1 1c.4.4.8.5 1.3.5h3.5v-2h-3.1c-.1 0-.3-.1-.4-.2l-.5-.5c-.1-.1-.2-.3-.2-.4v-7h4.2v-2h-4.2V0zm10.6 14.4l-3.3-9.5h-2.3l4.4 12.4L76 22h2.3l6.1-17.1h-2.3l-3.3 9.5zm17.6-9c-.3-.4-.8-.5-1.3-.5h-3.4c-.5 0-1 .2-1.3.5L89 6.8l-.4-1.9h-2.1l.4 2V22h2.3v-6.7l1.3 1.3c.3.3.8.5 1.3.5h3.4c.5 0 .9-.2 1.3-.5l1.2-1.1c.4-.4.6-.8.6-1.3V7.9c0-.5-.2-1-.6-1.3l-1.3-1.2zm-.6 8.7c0 .2-.1.3-.2.4l-.5.5c-.1.1-.2.2-.4.2h-3.1c-.1 0-.3-.1-.4-.2l-2.1-2c-.1-.1-.2-.2-.2-.4V9.4c0-.2.1-.3.2-.4l2.1-2c.1-.1.2-.2.4-.2h3.1c.1 0 .3.1.4.2l.5.5c.1.1.2.3.2.4v6.2zM112 7.8c0-.5-.2-.9-.6-1.3l-1.2-1.1c-.3-.4-.8-.5-1.3-.5h-5.2c-.5 0-.9.2-1.3.5l-1.2 1.1c-.4.4-.6.8-.6 1.3v6.3c0 .5.2.9.6 1.3l1.2 1.1c.4.4.8.5 1.3.5h5.2c.5 0 .9-.2 1.3-.5l1.7-1.6-1.5-1.4-1.4 1.4c-.1.1-.2.2-.4.2H104c-.1 0-.3-.1-.4-.2l-.5-.5c-.1-.1-.1-.2-.1-.4v-2.5h9V7.8zm-2.2 1.8H103V7.9c0-.1.1-.3.2-.4l.5-.5c.1-.1.2-.2.4-.2h4.6c.1 0 .3.1.4.2l.5.5c.1.1.2.2.2.4v1.7zM10.8.5c-.3-.3-.7-.5-1.2-.5H0v17.1h2.4V9.8h7.2c.5 0 .9-.2 1.3-.5l1.6-1.5c.3-.3.5-.7.5-1.3V3.3c0-.5-.2-.9-.6-1.3L10.8.5zm-.2 5.7c0 .2-.1.3-.2.4l-.9.8c-.1.1-.2.2-.3.2H2.4V2.3h6.8c.2 0 .3.1.4.2l.9.8c.1.1.2.2.2.4l-.1 2.5z"/></svg>

<?xml version="1.0" encoding="UTF-8"?>
<svg width="112px" height="22px" viewBox="0 0 112 22" version="1.1" xmlns="http://www.w3.org/2000/svg" xmlns:xlink="http://www.w3.org/1999/xlink">
    <!-- Generator: Sketch 48.2 (47327) - http://www.bohemiancoding.com/sketch -->
    <title>prototype</title>
    <desc>Created with Sketch.</desc>
    <defs></defs>
    <g id="job-listing" stroke="none" stroke-width="1" fill="none" fill-rule="evenodd" transform="translate(-151.000000, -50.000000)">
        <g id="Hero-image" fill="#FFFFFF" fill-rule="nonzero">
            <g id="Nav" transform="translate(151.000000, 47.000000)">
                <g id="prototype" transform="translate(0.000000, 3.000000)">
                    <path d="M24,5.4 C23.7,5 23.2,4.9 22.7,4.9 L20.6,4.9 C20.1,4.9 19.7,5.1 19.3,5.4 L17.9,6.8 L17.5,4.9 L15.3,4.9 L15.8,7 L15.8,17.1 L18.1,17.1 L18.1,9.4 C18.1,9.2 18.2,9.1 18.3,9 L20.5,6.9 C20.6,6.8 20.8,6.7 20.9,6.7 L22.5,6.7 C22.6,6.7 22.8,6.8 22.9,6.9 L23.5,7.5 C23.6,7.6 23.7,7.7 23.7,7.9 L23.7,9.7 L25.9,9.7 L25.9,7.8 C25.9,7.3 25.7,6.9 25.3,6.5 L24,5.4 Z M36.9,5.4 C36.6,5 36.1,4.9 35.6,4.9 L30.4,4.9 C29.9,4.9 29.5,5.1 29.1,5.4 L27.9,6.5 C27.5,6.9 27.3,7.3 27.3,7.8 L27.3,14.1 C27.3,14.6 27.5,15 27.9,15.4 L29.1,16.5 C29.5,16.9 29.9,17 30.4,17 L35.7,17 C36.2,17 36.6,16.8 37,16.5 L38.2,15.4 C38.6,15 38.8,14.6 38.8,14 L38.8,7.8 C38.8,7.3 38.6,6.9 38.2,6.5 L36.9,5.4 Z M36.3,14 C36.3,14.2 36.2,14.3 36.1,14.4 L35.6,14.9 C35.5,15 35.4,15.1 35.2,15.1 L30.6,15.1 C30.5,15.1 30.3,15 30.2,14.9 L29.7,14.4 C29.6,14.3 29.5,14.2 29.5,14 L29.5,7.9 C29.5,7.7 29.6,7.6 29.7,7.5 L30.2,7 C30.3,6.9 30.4,6.8 30.6,6.8 L35.2,6.8 C35.3,6.8 35.5,6.9 35.6,7 L36.1,7.5 C36.2,7.6 36.3,7.7 36.3,7.9 L36.3,14 Z M44.7,0 L42.4,0 L42.4,4.9 L40.4,4.9 L40.4,6.9 L42.4,6.9 L42.4,14.2 C42.4,14.7 42.6,15.1 43,15.5 L44.1,16.5 C44.5,16.9 44.9,17 45.4,17 L48.9,17 L48.9,15 L45.8,15 C45.7,15 45.5,14.9 45.4,14.8 L44.9,14.3 C44.8,14.2 44.7,14 44.7,13.9 L44.7,6.9 L48.9,6.9 L48.9,4.9 L44.7,4.9 L44.7,0 Z M60.3,5.4 C60,5.1 59.6,4.9 59,4.9 L53.8,4.9 C53.3,4.9 52.9,5.1 52.5,5.4 L51.3,6.5 C50.9,6.9 50.7,7.3 50.7,7.8 L50.7,14.1 C50.7,14.6 50.9,15 51.3,15.4 L52.5,16.5 C52.9,16.9 53.3,17 53.8,17 L59,17 C59.5,17 59.9,16.8 60.3,16.5 L61.5,15.4 C61.9,15 62.1,14.6 62.1,14 L62.1,7.8 C62.1,7.3 61.9,6.9 61.5,6.5 L60.3,5.4 Z M59.8,14 C59.8,14.2 59.7,14.3 59.6,14.4 L59.1,14.9 C59,15 58.9,15.1 58.7,15.1 L54.1,15.1 C54,15.1 53.8,15 53.7,14.9 L53.2,14.4 C53.1,14.3 53,14.2 53,14 L53,7.9 C53,7.7 53.1,7.6 53.2,7.5 L53.7,7 C53.8,6.9 53.9,6.8 54.1,6.8 L58.7,6.8 C58.8,6.8 59,6.9 59.1,7 L59.6,7.5 C59.7,7.6 59.8,7.7 59.8,7.9 L59.8,14 Z M68.2,0 L65.9,0 L65.9,4.9 L63.9,4.9 L63.9,6.9 L65.9,6.9 L65.9,14.2 C65.9,14.7 66.1,15.1 66.5,15.5 L67.6,16.5 C68,16.9 68.4,17 68.9,17 L72.4,17 L72.4,15 L69.3,15 C69.2,15 69,14.9 68.9,14.8 L68.4,14.3 C68.3,14.2 68.2,14 68.2,13.9 L68.2,6.9 L72.4,6.9 L72.4,4.9 L68.2,4.9 L68.2,0 Z M78.8,14.4 L75.5,4.9 L73.2,4.9 L77.6,17.3 L76,22 L78.3,22 L84.4,4.9 L82.1,4.9 L78.8,14.4 Z M96.4,5.4 C96.1,5 95.6,4.9 95.1,4.9 L91.7,4.9 C91.2,4.9 90.7,5.1 90.4,5.4 L89,6.8 L88.6,4.9 L86.5,4.9 L86.9,6.9 L86.9,22 L89.2,22 L89.2,15.3 L90.5,16.6 C90.8,16.9 91.3,17.1 91.8,17.1 L95.2,17.1 C95.7,17.1 96.1,16.9 96.5,16.6 L97.7,15.5 C98.1,15.1 98.3,14.7 98.3,14.2 L98.3,7.9 C98.3,7.4 98.1,6.9 97.7,6.6 L96.4,5.4 Z M95.8,14.1 C95.8,14.3 95.7,14.4 95.6,14.5 L95.1,15 C95,15.1 94.9,15.2 94.7,15.2 L91.6,15.2 C91.5,15.2 91.3,15.1 91.2,15 L89.1,13 C89,12.9 88.9,12.8 88.9,12.6 L88.9,9.4 C88.9,9.2 89,9.1 89.1,9 L91.2,7 C91.3,6.9 91.4,6.8 91.6,6.8 L94.7,6.8 C94.8,6.8 95,6.9 95.1,7 L95.6,7.5 C95.7,7.6 95.8,7.8 95.8,7.9 L95.8,14.1 Z M112,7.8 C112,7.3 111.8,6.9 111.4,6.5 L110.2,5.4 C109.9,5 109.4,4.9 108.9,4.9 L103.7,4.9 C103.2,4.9 102.8,5.1 102.4,5.4 L101.2,6.5 C100.8,6.9 100.6,7.3 100.6,7.8 L100.6,14.1 C100.6,14.6 100.8,15 101.2,15.4 L102.4,16.5 C102.8,16.9 103.2,17 103.7,17 L108.9,17 C109.4,17 109.8,16.8 110.2,16.5 L111.9,14.9 L110.4,13.5 L109,14.9 C108.9,15 108.8,15.1 108.6,15.1 L104,15.1 C103.9,15.1 103.7,15 103.6,14.9 L103.1,14.4 C103,14.3 103,14.2 103,14 L103,11.5 L112,11.5 L112,7.8 Z M109.8,9.6 L103,9.6 L103,7.9 C103,7.8 103.1,7.6 103.2,7.5 L103.7,7 C103.8,6.9 103.9,6.8 104.1,6.8 L108.7,6.8 C108.8,6.8 109,6.9 109.1,7 L109.6,7.5 C109.7,7.6 109.8,7.7 109.8,7.9 L109.8,9.6 Z M10.8,0.5 C10.5,0.2 10.1,0 9.6,0 L1.77635684e-15,0 L1.77635684e-15,17.1 L2.4,17.1 L2.4,9.8 L9.6,9.8 C10.1,9.8 10.5,9.6 10.9,9.3 L12.5,7.8 C12.8,7.5 13,7.1 13,6.5 L13,3.3 C13,2.8 12.8,2.4 12.4,2 L10.8,0.5 Z M10.6,6.2 C10.6,6.4 10.5,6.5 10.4,6.6 L9.5,7.4 C9.4,7.5 9.3,7.6 9.2,7.6 L2.4,7.6 L2.4,2.3 L9.2,2.3 C9.4,2.3 9.5,2.4 9.6,2.5 L10.5,3.3 C10.6,3.4 10.7,3.5 10.7,3.7 L10.6,6.2 Z" id="Shape"></path>
                </g>
            </g>
        </g>
    </g>
</svg>
